@themes/theme-zeno/src/img/logo-terraform.svg

<svg width="250" height="61" viewBox="0 0 250 61" fill="none" xmlns="http://www.w3.org/2000/svg">
<g clip-path="url(#clip0)">
<path d="M77.35 7.86V4.63H74.35V7.86H72.89V0.11H74.4V3.36H77.4V0.11H78.91V7.86H77.35ZM84.35 7.86H83.15L83.04 7.48C82.532 7.80652 81.9437 7.98647 81.34 8C80.28 8 79.82 7.3 79.82 6.34C79.82 5.2 80.33 4.77 81.52 4.77H82.92V4.15C82.92 3.53 82.74 3.31 81.81 3.31C81.2691 3.31507 80.73 3.372 80.2 3.48L80 2.42C80.6528 2.24813 81.325 2.16075 82 2.16C83.83 2.16 84.37 2.78 84.37 4.16L84.35 7.86ZM82.92 5.75H81.84C81.36 5.75 81.23 5.88 81.23 6.3C81.23 6.72 81.36 6.86 81.82 6.86C82.2048 6.85407 82.5823 6.75454 82.92 6.57V5.75ZM87.43 8C86.7515 7.98919 86.078 7.88143 85.43 7.68L85.63 6.61C86.1939 6.76436 86.7754 6.84503 87.36 6.85C88.01 6.85 88.1 6.71 88.1 6.29C88.1 5.87 88.03 5.77 87.1 5.56C85.68 5.23 85.51 4.88 85.51 3.8C85.51 2.72 86 2.15 87.67 2.15C88.2589 2.15205 88.8458 2.21912 89.42 2.35L89.28 3.46C88.7515 3.36646 88.2166 3.31298 87.68 3.3C87.05 3.3 86.94 3.44 86.94 3.78C86.94 4.12 86.94 4.26 87.76 4.46C89.39 4.87 89.54 5.08 89.54 6.23C89.54 7.38 89.19 8 87.43 8ZM94.11 7.89V4C94.11 3.7 93.98 3.55 93.64 3.55C93.1091 3.60069 92.593 3.75349 92.12 4V7.86H90.66V0L92.12 0.22V2.69C92.7846 2.36346 93.5101 2.17952 94.25 2.15C95.25 2.15 95.57 2.8 95.57 3.8V7.86L94.11 7.89ZM96.79 1.51V0.11H98.25V1.48L96.79 1.51ZM96.79 7.89V2.27H98.25V7.86L96.79 7.89ZM99.41 2.35C99.41 0.95 100.26 0.13 102.24 0.13C102.967 0.129226 103.692 0.213124 104.4 0.38L104.23 1.63C103.586 1.51118 102.934 1.4443 102.28 1.43C101.28 1.43 100.91 1.77 100.91 2.59V5.5C100.91 6.31 101.24 6.66 102.28 6.66C102.934 6.6457 103.586 6.57882 104.23 6.46L104.4 7.71C103.692 7.87688 102.967 7.96077 102.24 7.96C100.24 7.96 99.41 7.15 99.41 5.74V2.35ZM107.63 8C105.63 8 105.1 6.94 105.1 5.8V4.36C105.1 3.21 105.64 2.16 107.63 2.16C109.62 2.16 110.16 3.22 110.16 4.36V5.77C110.17 6.92 109.63 8 107.63 8ZM107.63 3.37C106.85 3.37 106.55 3.7 106.55 4.37V5.87C106.55 6.5 106.85 6.87 107.63 6.87C108.41 6.87 108.71 6.54 108.71 5.87V4.31C108.71 3.68 108.41 3.35 107.63 3.35V3.37ZM114.27 3.46C113.737 3.69096 113.222 3.96173 112.73 4.27V7.87H111.27V2.27H112.5L112.6 2.89C113.077 2.5822 113.591 2.33686 114.13 2.16L114.27 3.46ZM120.1 6C120.144 6.26557 120.126 6.53776 120.046 6.79491C119.966 7.05206 119.828 7.28709 119.641 7.48128C119.455 7.67548 119.226 7.82349 118.972 7.91354C118.718 8.00359 118.447 8.0332 118.18 8C117.659 7.99504 117.141 7.94147 116.63 7.84V10.1L115.17 10.32V2.32H116.33L116.47 2.79C117.006 2.40543 117.65 2.19905 118.31 2.2C119.48 2.2 120.1 2.87 120.1 4.14V6ZM116.62 6.63C117.044 6.72153 117.476 6.77177 117.91 6.78C118.44 6.78 118.64 6.54 118.64 6.03V4.03C118.64 3.57 118.46 3.32 117.92 3.32C117.441 3.33752 116.983 3.51737 116.62 3.83V6.63Z" fill="black"/>
<path d="M81.78 19.54H72.89V14.23H96.7V19.54H87.8V46.07H81.8L81.78 19.54Z" fill="black"/>
<path d="M102.19 41.7699C104.605 41.7578 107.004 41.387 109.31 40.6699L110.22 45.0699C107.475 46.059 104.578 46.5599 101.66 46.5499C94.35 46.5499 91.81 43.1599 91.81 37.5499V31.3999C91.81 26.4799 94.01 22.3199 101.47 22.3199C108.93 22.3199 110.6 26.6699 110.6 31.6899V36.6899H97.6V37.8899C97.65 40.6699 98.65 41.7699 102.19 41.7699ZM97.65 31.9999H105.06V30.8199C105.06 28.6199 104.39 27.0899 101.52 27.0899C98.65 27.0899 97.65 28.6199 97.65 30.8199V31.9999Z" fill="black"/>
<path d="M126.19 27.6701C124.042 28.6386 121.973 29.772 120 31.0601V46.0601H114.17V22.7901H119.09L119.47 25.3701C121.367 24.0858 123.424 23.057 125.59 22.3101L126.19 27.6701Z" fill="black"/>
<path d="M140.43 27.6701C138.289 28.6396 136.226 29.7729 134.26 31.0601V46.0601H128.43V22.7901H133.35L133.73 25.3701C135.627 24.0858 137.685 23.057 139.85 22.3101L140.43 27.6701Z" fill="black"/>
<path d="M159.94 46.0701H155.16L154.73 44.4901C152.668 45.832 150.261 46.5476 147.8 46.5501C143.55 46.5501 141.73 43.6301 141.73 39.6201C141.73 34.8901 143.79 33.0701 148.52 33.0701H154.11V30.6301C154.11 28.0501 153.39 27.1401 149.66 27.1401C147.491 27.1644 145.331 27.4057 143.21 27.8601L142.49 23.4101C145.096 22.689 147.786 22.3191 150.49 22.3101C157.8 22.3101 159.96 24.8901 159.96 30.7201L159.94 46.0701ZM154.11 37.2701H149.81C147.9 37.2701 147.37 37.8001 147.37 39.5601C147.37 41.3201 147.9 41.9001 149.71 41.9001C151.254 41.8766 152.768 41.4638 154.11 40.7001V37.2701Z" fill="black"/>
<path d="M177.86 17.48C176.759 17.2433 175.636 17.116 174.51 17.1C172.22 17.1 171.88 18.1 171.88 19.87V22.79H177.81L177.48 27.43H171.89V46.07H166.06V27.43H162.33V22.79H166.06V19.54C166.06 14.71 168.31 12.32 173.47 12.32C175.159 12.3136 176.842 12.539 178.47 12.99L177.86 17.48Z" fill="black"/>
<path d="M189.24 46.5501C181.24 46.5501 179.11 42.1501 179.11 37.3701V31.4901C179.11 26.7101 181.26 22.3101 189.24 22.3101C197.22 22.3101 199.37 26.7101 199.37 31.4901V37.3701C199.38 42.1501 197.22 46.5501 189.24 46.5501ZM189.24 27.2801C186.13 27.2801 184.94 28.6701 184.94 31.2801V37.5401C184.94 40.1701 186.14 41.5401 189.24 41.5401C192.34 41.5401 193.54 40.1501 193.54 37.5401V31.3001C193.54 28.6701 192.35 27.2801 189.24 27.2801Z" fill="black"/>
<path d="M214.38 27.6701C212.239 28.6396 210.176 29.7729 208.21 31.0601V46.0601H202.38V22.7901H207.3L207.68 25.3701C209.577 24.0857 211.634 23.0569 213.8 22.3101L214.38 27.6701Z" fill="black"/>
<path d="M230.4 46.07V29.82C230.4 28.58 229.87 27.96 228.54 27.96C226.403 28.2138 224.339 28.8939 222.47 29.96V46.07H216.64V22.79H221.09L221.66 24.79C224.566 23.3202 227.748 22.4754 231 22.31C231.9 22.2253 232.804 22.4185 233.591 22.8638C234.378 23.309 235.009 23.9848 235.4 24.8C238.309 23.3087 241.504 22.4596 244.77 22.31C248.64 22.31 250.03 25.03 250.03 29.19V46.07H244.2V29.82C244.2 28.58 243.67 27.96 242.34 27.96C240.199 28.1957 238.132 28.877 236.27 29.96V46.07H230.4Z" fill="black"/>
<path fill-rule="evenodd" clip-rule="evenodd" d="M18.2 10.72L34.6 20.2V39.13L18.2 29.66V10.72Z" fill="#5C4EE5"/>
<path fill-rule="evenodd" clip-rule="evenodd" d="M36.4 20.2V39.13L52.8 29.67V10.72L36.4 20.2Z" fill="#4040B2"/>
<path fill-rule="evenodd" clip-rule="evenodd" d="M0 0.150024V19.09L16.4 28.56V9.62002L0 0.150024Z" fill="#5C4EE5"/>
<path fill-rule="evenodd" clip-rule="evenodd" d="M18.2 50.68L34.6 60.15V41.34V41.21L18.2 31.74V50.68Z" fill="#5C4EE5"/>
</g>
<defs>
<clipPath id="clip0">
<rect width="250" height="60.15" fill="white"/>
</clipPath>
</defs>
</svg>

<svg width="250" height="61" fill="none" xmlns="http://www.w3.org/2000/svg"><g clip-path="url(#clip0)"><path d="M77.35 7.86V4.63h-3v3.23h-1.46V.11h1.51v3.25h3V.11h1.51v7.75h-1.56zm7 0h-1.2l-.11-.38a3.28 3.28 0 01-1.7.52c-1.06 0-1.52-.7-1.52-1.66 0-1.14.51-1.57 1.7-1.57h1.4v-.62c0-.62-.18-.84-1.11-.84a8.46 8.46 0 00-1.61.17L80 2.42a7.89 7.89 0 012-.26c1.83 0 2.37.62 2.37 2l-.02 3.7zm-1.43-2.11h-1.08c-.48 0-.61.13-.61.55 0 .42.13.56.59.56a2.37 2.37 0 001.1-.29v-.82zM87.43 8a7.12 7.12 0 01-2-.32l.2-1.07a6.77 6.77 0 001.73.24c.65 0 .74-.14.74-.56 0-.42-.07-.52-1-.73-1.42-.33-1.59-.68-1.59-1.76s.49-1.65 2.16-1.65a8 8 0 011.75.2l-.14 1.11a10.66 10.66 0 00-1.6-.16c-.63 0-.74.14-.74.48 0 .34 0 .48.82.68 1.63.41 1.78.62 1.78 1.77S89.19 8 87.43 8zm6.68-.11V4c0-.3-.13-.45-.47-.45a4.14 4.14 0 00-1.52.45v3.86h-1.46V0l1.46.22v2.47a5.31 5.31 0 012.13-.54c1 0 1.32.65 1.32 1.65v4.06l-1.46.03zm2.68-6.38V.11h1.46v1.37l-1.46.03zm0 6.38V2.27h1.46v5.59l-1.46.03zm2.62-5.54c0-1.4.85-2.22 2.83-2.22.727 0 1.452.083 2.16.25l-.17 1.25a12.219 12.219 0 00-1.95-.2c-1 0-1.37.34-1.37 1.16V5.5c0 .81.33 1.16 1.37 1.16a12.219 12.219 0 001.95-.2l.17 1.25a9.373 9.373 0 01-2.16.25c-2 0-2.83-.81-2.83-2.22V2.35zM107.63 8c-2 0-2.53-1.06-2.53-2.2V4.36c0-1.15.54-2.2 2.53-2.2 1.99 0 2.53 1.06 2.53 2.2v1.41c.01 1.15-.53 2.23-2.53 2.23zm0-4.63c-.78 0-1.08.33-1.08 1v1.5c0 .63.3 1 1.08 1s1.08-.33 1.08-1V4.31c0-.63-.3-.96-1.08-.96v.02zm6.64.09a11.55 11.55 0 00-1.54.81v3.6h-1.46v-5.6h1.23l.1.62a6.64 6.64 0 011.53-.73l.14 1.3zM120.1 6a1.726 1.726 0 01-1.128 1.914 1.73 1.73 0 01-.792.086 8.36 8.36 0 01-1.55-.16v2.26l-1.46.22v-8h1.16l.14.47a3.15 3.15 0 011.84-.59c1.17 0 1.79.67 1.79 1.94V6zm-3.48.63c.424.092.856.142 1.29.15.53 0 .73-.24.73-.75v-2c0-.46-.18-.71-.72-.71a2.11 2.11 0 00-1.3.51v2.8zM81.78 19.54h-8.89v-5.31H96.7v5.31h-8.9v26.53h-6l-.02-26.53z" fill="#000"/><path d="M102.19 41.77a24.387 24.387 0 007.12-1.1l.91 4.4a24.998 24.998 0 01-8.56 1.48c-7.31 0-9.85-3.39-9.85-9V31.4c0-4.92 2.2-9.08 9.66-9.08s9.13 4.35 9.13 9.37v5h-13v1.2c.05 2.78 1.05 3.88 4.59 3.88zM97.65 32h7.41v-1.18c0-2.2-.67-3.73-3.54-3.73s-3.87 1.53-3.87 3.73V32zM126.19 27.67a45.633 45.633 0 00-6.19 3.39v15h-5.83V22.79h4.92l.38 2.58a26.08 26.08 0 016.12-3.06l.6 5.36zM140.43 27.67a45.615 45.615 0 00-6.17 3.39v15h-5.83V22.79h4.92l.38 2.58a26.1 26.1 0 016.12-3.06l.58 5.36zM159.94 46.07h-4.78l-.43-1.58a12.729 12.729 0 01-6.93 2.06c-4.25 0-6.07-2.92-6.07-6.93 0-4.73 2.06-6.55 6.79-6.55h5.59v-2.44c0-2.58-.72-3.49-4.45-3.49a32.524 32.524 0 00-6.45.72l-.72-4.45a30.374 30.374 0 018-1.1c7.31 0 9.47 2.58 9.47 8.41l-.02 15.35zm-5.83-8.8h-4.3c-1.91 0-2.44.53-2.44 2.29s.53 2.34 2.34 2.34a9.18 9.18 0 004.4-1.2v-3.43zM177.86 17.48a17.1 17.1 0 00-3.35-.38c-2.29 0-2.63 1-2.63 2.77v2.92h5.93l-.33 4.64h-5.59v18.64h-5.83V27.43h-3.73v-4.64h3.73v-3.25c0-4.83 2.25-7.22 7.41-7.22a18.47 18.47 0 015 .67l-.61 4.49zM189.24 46.55c-8 0-10.13-4.4-10.13-9.18v-5.88c0-4.78 2.15-9.18 10.13-9.18s10.13 4.4 10.13 9.18v5.88c.01 4.78-2.15 9.18-10.13 9.18zm0-19.27c-3.11 0-4.3 1.39-4.3 4v6.26c0 2.63 1.2 4 4.3 4 3.1 0 4.3-1.39 4.3-4V31.3c0-2.63-1.19-4.02-4.3-4.02zM214.38 27.67a45.615 45.615 0 00-6.17 3.39v15h-5.83V22.79h4.92l.38 2.58a26.073 26.073 0 016.12-3.06l.58 5.36zM230.4 46.07V29.82c0-1.24-.53-1.86-1.86-1.86a16.077 16.077 0 00-6.07 2v16.11h-5.83V22.79h4.45l.57 2a23.32 23.32 0 019.34-2.48 4.42 4.42 0 014.4 2.49 22.828 22.828 0 019.37-2.49c3.87 0 5.26 2.72 5.26 6.88v16.88h-5.83V29.82c0-1.24-.53-1.86-1.86-1.86a15.43 15.43 0 00-6.07 2v16.11h-5.87z" fill="#000"/><path fill-rule="evenodd" clip-rule="evenodd" d="M18.2 10.72l16.4 9.48v18.93l-16.4-9.47V10.72z" fill="#5C4EE5"/><path fill-rule="evenodd" clip-rule="evenodd" d="M36.4 20.2v18.93l16.4-9.46V10.72L36.4 20.2z" fill="#4040B2"/><path fill-rule="evenodd" clip-rule="evenodd" d="M0 .15v18.94l16.4 9.47V9.62L0 .15zM18.2 50.68l16.4 9.47V41.21l-16.4-9.47v18.94z" fill="#5C4EE5"/></g><defs><clipPath id="clip0"><path fill="#fff" d="M0 0h250v60.15H0z"/></clipPath></defs></svg>
